X: 15
T: 12th Of June
R: jig
M: 6/8
K: Eminor
e|:ede B2A|AGB AGG|ede B2A|ABd e2e|
ede B2A|AGB AGB|GAB d2G|1 ABd e2e:|2 ABd e2A||
|:ede g2a-|aed BAG|ede g2a-|aed ~e3|
ede ~g2a-|aed BAB|GAB d2G|1 ABd e2e:|2 ABd e2||

